!!!COM: Fux, Johann Joseph
!!!OMD: Gradus ad Parnassum Exercise
!!!YEC: CC0 1.0 Universal (Public Domain). Mark Gotham and FourScoreAndMore.org waive all rights to this document.
**kern	**kern	**kern	**kern
*part4	*part3	*part2	*part1
*staff4	*staff3	*staff2	*staff1
*I"4	*I"3	*I"2	*I"1
*I'Pno	*I'Pno	*I'Pno	*I'Pno
!!LO:LB:g=z
*clefF4	*clefGv2	*clefGv2	*clefG2
*k[]	*k[]	*k[]	*k[]
!!LO:TX:omd:t=
*M4/4	*M4/4	*M4/4	*M4/4
=306	=306	=306	=306
!	!	!	!LO:TX:a:t=Fig. 201; Species&colon; 5; Modal final&colon; d; Cantus firmus&colon; 1
1D	1A	2r	1d
.	.	[2A/	.
=307	=307	=307	=307
1D	1F	4A/]	1f
.	.	4F/	.
.	.	4A/	.
.	.	4B\	.
=308	=308	=308	=308
1C	1G	4c\	1e
.	.	4G/	.
.	.	[2c\	.
=309	=309	=309	=309
1G	1G	2c\]	1d
.	.	[2B\	.
=310	=310	=310	=310
1E	1G	4B\]	1g
.	.	4G/	.
.	.	4B\	.
.	.	4c#X\	.
=311	=311	=311	=311
1D	1A	4d\	1f
.	.	4D/	.
.	.	[2d\	.
=312	=312	=312	=312
1F	1A	4d\]	1a
.	.	4c\	.
.	.	[2f\	.
=313	=313	=313	=313
1C	1c	2f\]	1g
.	.	[2e\	.
=314	=314	=314	=314
1D	1A	4e\]	1f
.	.	4A/	.
.	.	[2d\	.
=315	=315	=315	=315
1AA	1A	2d\]	1e
.	.	2c#X\	.
=316	=316	=316	=316
1D	1A	1d	1d
==	==	==	==
*-	*-	*-	*-
!!!software: music21 v.9.7.1
!!!software: music21 v.9.7.1
!!!software: MuseScore 3.4.2
!!!RDF**kern: > = above
!!!RDF**kern: < = below
